symbols/web/timer_off/materialsymbolsrounded/timer_off_wght200grad200_40px.svg

<svg xmlns="http://www.w3.org/2000/svg" height="40" width="40"><path d="m32.458 28.792-1.583-1.542q.542-1.042.792-2.292.25-1.25.25-2.625 0-4.958-3.479-8.437-3.48-3.479-8.438-3.479-1.292 0-2.625.25t-2.292.791L13.5 9.917q1.5-.875 3.188-1.25 1.687-.375 3.312-.375 2.5 0 4.812.833 2.313.833 4.23 2.5l1.291-1.375q.292-.292.729-.292.438 0 .771.334.375.375.375.771 0 .395-.375.77l-1.291 1.292q1.833 2.042 2.666 4.437.834 2.396.834 4.771 0 1.667-.375 3.375-.375 1.709-1.209 3.084ZM21.083 17.417V15.25q0-.417-.333-.729-.333-.313-.75-.313-.375 0-.646.23-.271.229-.312.604v.375ZM20 36.375q-2.917 0-5.479-1.104-2.563-1.104-4.479-3-1.917-1.896-3-4.479-1.084-2.584-1.084-5.459 0-2.541.854-4.812.855-2.271 2.563-4.271L4.042 7.875q-.334-.292-.334-.729 0-.438.375-.771.334-.333.75-.333.417 0 .75.333l28.709 28.708q.291.292.312.729.021.438-.312.771-.375.375-.792.375-.417 0-.75-.375l-3.667-3.625q-1.833 1.709-4.125 2.563-2.291.854-4.958.854Zm0-2.125q2.167 0 4.062-.75 1.896-.75 3.563-2.125L11.042 14.75q-1.417 1.542-2.188 3.5-.771 1.958-.771 4.083 0 4.959 3.479 8.438Q15.042 34.25 20 34.25ZM16.375 4.042q-.458 0-.771-.313-.312-.312-.312-.771 0-.458.312-.77.313-.313.771-.313h7.25q.458 0 .771.313.312.312.312.77 0 .459-.312.771-.313.313-.771.313ZM19.25 23Zm3.708-3.667Z"/></svg>

<svg xmlns="http://www.w3.org/2000/svg" height="40" width="40"><path d="M32.458 28.792 30.875 27.25Q31.417 26.208 31.667 24.958Q31.917 23.708 31.917 22.333Q31.917 17.375 28.438 13.896Q24.958 10.417 20 10.417Q18.708 10.417 17.375 10.667Q16.042 10.917 15.083 11.458L13.5 9.917Q15 9.042 16.688 8.667Q18.375 8.292 20 8.292Q22.5 8.292 24.812 9.125Q27.125 9.958 29.042 11.625L30.333 10.25Q30.625 9.958 31.062 9.958Q31.5 9.958 31.833 10.292Q32.208 10.667 32.208 11.063Q32.208 11.458 31.833 11.833L30.542 13.125Q32.375 15.167 33.208 17.562Q34.042 19.958 34.042 22.333Q34.042 24 33.667 25.708Q33.292 27.417 32.458 28.792ZM21.083 17.417V15.25Q21.083 14.833 20.75 14.521Q20.417 14.208 20 14.208Q19.625 14.208 19.354 14.438Q19.083 14.667 19.042 15.042V15.417ZM20 36.375Q17.083 36.375 14.521 35.271Q11.958 34.167 10.042 32.271Q8.125 30.375 7.042 27.792Q5.958 25.208 5.958 22.333Q5.958 19.792 6.812 17.521Q7.667 15.25 9.375 13.25L4.042 7.875Q3.708 7.583 3.708 7.146Q3.708 6.708 4.083 6.375Q4.417 6.042 4.833 6.042Q5.25 6.042 5.583 6.375L34.292 35.083Q34.583 35.375 34.604 35.812Q34.625 36.25 34.292 36.583Q33.917 36.958 33.5 36.958Q33.083 36.958 32.75 36.583L29.083 32.958Q27.25 34.667 24.958 35.521Q22.667 36.375 20 36.375ZM20 34.25Q22.167 34.25 24.062 33.5Q25.958 32.75 27.625 31.375L11.042 14.75Q9.625 16.292 8.854 18.25Q8.083 20.208 8.083 22.333Q8.083 27.292 11.562 30.771Q15.042 34.25 20 34.25ZM16.375 4.042Q15.917 4.042 15.604 3.729Q15.292 3.417 15.292 2.958Q15.292 2.5 15.604 2.188Q15.917 1.875 16.375 1.875H23.625Q24.083 1.875 24.396 2.188Q24.708 2.5 24.708 2.958Q24.708 3.417 24.396 3.729Q24.083 4.042 23.625 4.042ZM19.25 23Q19.25 23 19.25 23Q19.25 23 19.25 23Q19.25 23 19.25 23Q19.25 23 19.25 23Q19.25 23 19.25 23Q19.25 23 19.25 23ZM22.958 19.333Q22.958 19.333 22.958 19.333Q22.958 19.333 22.958 19.333Q22.958 19.333 22.958 19.333Q22.958 19.333 22.958 19.333Q22.958 19.333 22.958 19.333Q22.958 19.333 22.958 19.333Z"/></svg>
